X:5
T:Lichtmann 5
C:M. Praetorius
M:6/4
L:1/4
Q:"Allegro" 3/4=66
K:C
!mf!G"_spiritoso"|c2Gc2d|G3/f/gecg|f2ed2c|B3/c/dBGg|
f2ed2c|B3/c/dBGg|d2ef2e|d2cB2G|ABcBcd|
c3c2c||BGdBGd|B/A/ G d/c/ BGD|EFGAGA|
G3G2g|ecgecg|f3f2e|d2cc2B|c3c2|]

